client/filepreviewer/pdfjs/web/images/toolbarButton-editorInk.svg

<svg width="16" height="16" viewBox="0 0 16 16" fill="none" xmlns="http://www.w3.org/2000/svg">
<path d="M2.49913 12.6251C2.61913 12.6251 2.73913 12.6051 2.85713 12.5661L6.29013 11.4201L13.2891 4.4221C14.0191 3.6911 14.0191 2.5011 13.2891 1.7701L12.2291 0.710098C11.4971 -0.0199023 10.3091 -0.0199023 9.57713 0.710098L2.57813 7.7091L1.43313 11.1451C1.29813 11.5511 1.40213 11.9931 1.70513 12.2951C1.92113 12.5101 2.20613 12.6251 2.49913 12.6251ZM10.4611 1.5951C10.7031 1.3511 11.1021 1.3511 11.3441 1.5951L12.4051 2.6561C12.6491 2.8991 12.6491 3.2961 12.4051 3.5391L11.3401 4.6051L9.39513 2.6601L10.4611 1.5951ZM3.67013 8.3851L8.51013 3.5451L10.4541 5.4891L5.61413 10.3301L2.69713 11.3031L3.67013 8.3851Z" fill="black"/>
<path d="M14.8169 13.314L13.0229 13.862C12.3309 14.073 11.5909 14.111 10.8859 13.968L8.80391 13.551C7.58491 13.308 6.29791 13.48 5.18491 14.036C3.95291 14.652 2.46691 14.412 1.49191 13.436L1.44091 13.385L0.60791 14.321C1.46291 15.175 2.59991 15.625 3.75291 15.625C4.42891 15.625 5.10991 15.471 5.74391 15.153C6.60891 14.721 7.60891 14.586 8.55891 14.777L10.6409 15.194C11.5509 15.376 12.5009 15.327 13.3879 15.056L15.1819 14.508L14.8169 13.314Z" fill="black"/>
</svg>

<svg xmlns="http://www.w3.org/2000/svg" width="16" height="16" fill="#000"><path d="M2.499 12.625a1.14 1.14 0 0 0 .358-.059L6.29 11.42l6.999-6.998a1.88 1.88 0 0 0 0-2.652L12.229.71a1.88 1.88 0 0 0-2.652 0L2.578 7.709l-1.145 3.436a1.12 1.12 0 0 0 .272 1.15c.216.215.501.33.794.33zm7.962-11.03c.242-.244.641-.244.883 0l1.061 1.061c.244.243.244.64 0 .883L11.34 4.605 9.395 2.66l1.066-1.065zM3.67 8.385l4.84-4.84 1.944 1.944-4.84 4.841-2.917.973.973-2.918zm11.147 4.929l-1.794.548c-.692.211-1.432.249-2.137.106l-2.082-.417c-1.219-.243-2.506-.071-3.619.485-1.232.616-2.718.376-3.693-.6l-.051-.051-.833.936c.855.854 1.992 1.304 3.145 1.304.676 0 1.357-.154 1.991-.472.865-.432 1.865-.567 2.815-.376l2.082.417c.91.182 1.86.133 2.747-.138l1.794-.548-.365-1.194z"/></svg>
